assets/icons/librescoot-gps-searching.svg

<svg width="144" height="144" viewBox="0 0 144 144" fill="none" xmlns="http://www.w3.org/2000/svg">
    <g clip-path="url(#clip0_400_965)">
        <g>
            <path d="M67.5 138V126.75C53.8 125.35 42.4 120.1 33.3 111C24.2 101.9 18.95 90.5001 17.55 76.8001H6.29999V67.8001H17.55C18.95 54.1001 24.2 42.7001 33.3 33.6001C42.4 24.5001 53.8 19.2501 67.5 17.8501V6.6001H76.5V17.8501C90.2 19.2501 101.6 24.5001 110.7 33.6001C119.8 42.7001 125.05 54.1001 126.45 67.8001H137.7V76.8001H126.45C125.05 90.5001 119.8 101.9 110.7 111C101.6 120.1 90.2 125.35 76.5 126.75V138H67.5ZM72 117.9C84.5 117.9 95.225 113.425 104.175 104.475C113.125 95.5251 117.6 84.8001 117.6 72.3001C117.6 59.8001 113.125 49.0751 104.175 40.1251C95.225 31.1751 84.5 26.7001 72 26.7001C59.5 26.7001 48.775 31.1751 39.825 40.1251C30.875 49.0751 26.4 59.8001 26.4 72.3001C26.4 84.8001 30.875 95.5251 39.825 104.475C48.775 113.425 59.5 117.9 72 117.9Z" fill="white"/>
        </g>
    </g>
    <defs>
        <clipPath id="clip0_400_965">
            <rect width="144" height="144" fill="white"/>
        </clipPath>
    </defs>
</svg>

<svg xmlns="http://www.w3.org/2000/svg" width="144" height="144" fill="none" viewBox="0 0 144 144"><g clip-path="url(#a)"><path fill="#fff" d="M67.5 138v-11.25q-20.55-2.1-34.2-15.75T17.55 76.8001H6.3v-9h11.25q2.1-20.55 15.75-34.2t34.2-15.75v-11.25h9v11.25q20.55 2.1 34.2 15.75t15.75 34.2h11.25v9h-11.25q-2.1 20.55-15.75 34.1999-13.65 13.65-34.2 15.75V138zm4.5-20.1q18.75 0 32.175-13.425Q117.6 91.0501 117.6 72.3001t-13.425-32.175T72 26.7001t-32.175 13.425T26.4 72.3001t13.425 32.1749T72 117.9"/></g><defs><clipPath id="a"><path fill="#fff" d="M0 0h144v144H0z"/></clipPath></defs></svg>
